X: 17762
T: Hommage A Pigeon
R: reel
M: 4/4
K: Bminor
|:~B3B f3f|efed ~c3B|c2c2 d2d2|BcdB cfed|
~B3B f3f|efed ~c3B|c2c2 d2d2|1 cdcA cAFA:|2 cdcA BABc||
|:(3ded cd edcd|BFDF BABc|(3ded cd edcd|BFDF Bfff|
(3efe cf (3efe cf|d/e/f Bf d/e/f Bd|(3cdc Ac fedc|1 Bcde fdBc:|2 dBdf b3e||

